archdroid-icon-theme/Archdroid-BlueGreyDark/apps/scalable/system-file-manager-ubuntu-color.svg

<svg fill="#263238" height="48" viewBox="0 0 48 48" width="48" xmlns="http://www.w3.org/2000/svg"><path d="m20 5-4 4v4h-8c-2.21 0-3.980469 1.79-3.980469 4l-.019531 22c0 2.21 1.79 4 4 4h32c2.21 0 4-1.79 4-4v-22c0-2.21-1.79-4-4-4h-8v-4l-4-4zm0 4h8v4h-8zm8.4375 9.003906c.368402-.025099.747842.052807 1.091797.244141.917416.510419 1.232836 1.639434.703125 2.523437-.529407.883613-1.703779 1.186298-2.621094.675782-.917112-.510126-1.23068-1.639825-.701172-2.523438.33107-.552502.91334-.878089 1.527344-.919922zm-4.75 1.966797c.771254 0 1.515895.103979 2.224609.292969.125282.742383.583514 1.426509 1.3125 1.832031.728075.405132 1.569639.445152 2.298829.179688 1.418341 1.343634 2.342056 3.171215 2.476562 5.207031l-2.734375.039062c-.251679-2.757396-2.65113-4.919921-5.578125-4.919921-.843423 0-1.643998.180328-2.361328.501953l-1.332031-2.300782c1.113144-.53132 2.366952-.832031 3.693359-.832031zm-4.623047 1.34961 1.402344 2.263671c-1.440438.976887-2.382813 2.589505-2.382813 4.416016 0 1.826804.942375 3.439324 2.382813 4.416016l-1.402344 2.263672c-1.678534-1.080515-2.926751-2.732948-3.445312-4.667969.605934-.475747.992187-1.1996.992187-2.011719 0-.812315-.386354-1.535875-.992187-2.011719.518663-1.934826 1.766778-3.587357 3.445312-4.667968zm-5.146484 4.832031c1.05922 0 1.917969.826622 1.917969 1.847656 0 1.020545-.858851 1.847656-1.917969 1.847656-1.059524 0-1.917969-.827111-1.917969-1.847656 0-1.020936.858445-1.847656 1.917969-1.847656zm15.347656 2.326172 2.734375.039062c-.134303 2.035816-1.05637 3.863299-2.474609 5.207031-.72919-.265562-1.572707-.225249-2.300782.179688-.729088.405815-1.187218 1.089648-1.3125 1.832031-.708815.18899-1.453355.292969-2.224609.292969-1.326407 0-2.580114-.300906-3.693359-.832031l1.332031-2.300782c.717431.321625 1.517804.501954 2.361328.501954 2.926995-.000001 5.326649-2.162136 5.578125-4.919922zm-.560547 5.830078c.613991.041827 1.196401.367663 1.527344.919922.52961.883906.213987 2.013213-.703125 2.523437-.917416.510322-2.089429.208223-2.619141-.675781-.529407-.883613-.214291-2.013116.703125-2.523438.343917-.191334.723403-.269236 1.091797-.24414z" fill="#dd4814"/></svg>

<svg fill="#263238" height="48" version="1.1" viewBox="0 0 48 48" width="48" xmlns="http://www.w3.org/2000/svg"><path d="M20 5L16 9 16 13 8 13C5.79 13 4.019531 14.79 4.019531 17L4 39C4 41.21 5.79 43 8 43L40 43C42.21 43 44 41.21 44 39L44 17C44 14.79 42.21 13 40 13L32 13 32 9 28 5 20 5zM20 9L28 9 28 13 20 13 20 9zM28.4375 18.003906C28.805902 17.978807 29.185342 18.056713 29.529297 18.248047 30.446713 18.758466 30.762133 19.887481 30.232422 20.771484 29.703015 21.655097 28.528643 21.957782 27.611328 21.447266 26.694216 20.93714 26.380648 19.807441 26.910156 18.923828 27.241226 18.371326 27.823496 18.045739 28.4375 18.003906zM23.6875 19.970703C24.458754 19.970703 25.203395 20.074682 25.912109 20.263672 26.037391 21.006055 26.495623 21.690181 27.224609 22.095703 27.952684 22.500835 28.794248 22.540855 29.523438 22.275391 30.941779 23.619025 31.865494 25.446606 32 27.482422L29.265625 27.521484C29.013946 24.764088 26.614495 22.601563 23.6875 22.601563 22.844077 22.601563 22.043502 22.781891 21.326172 23.103516L19.994141 20.802734C21.107285 20.271414 22.361093 19.970703 23.6875 19.970703zM19.064453 21.320313L20.466797 23.583984C19.026359 24.560871 18.083984 26.173489 18.083984 28 18.083984 29.826804 19.026359 31.439324 20.466797 32.416016L19.064453 34.679688C17.385919 33.599173 16.137702 31.94674 15.619141 30.011719 16.225075 29.535972 16.611328 28.812119 16.611328 28 16.611328 27.187685 16.224974 26.464125 15.619141 25.988281 16.137804 24.053455 17.385919 22.400924 19.064453 21.320313zM13.917969 26.152344C14.977189 26.152344 15.835938 26.978966 15.835938 28 15.835938 29.020545 14.977087 29.847656 13.917969 29.847656 12.858445 29.847656 12 29.020545 12 28 12 26.979064 12.858445 26.152344 13.917969 26.152344zM29.265625 28.478516L32 28.517578C31.865697 30.553394 30.94363 32.380877 29.525391 33.724609 28.796201 33.459047 27.952684 33.49936 27.224609 33.904297 26.495521 34.310112 26.037391 34.993945 25.912109 35.736328 25.203294 35.925318 24.458754 36.029297 23.6875 36.029297 22.361093 36.029297 21.107386 35.728391 19.994141 35.197266L21.326172 32.896484C22.043603 33.218109 22.843976 33.398438 23.6875 33.398438 26.614495 33.398437 29.014149 31.236302 29.265625 28.478516zM28.705078 34.308594C29.319069 34.350421 29.901479 34.676257 30.232422 35.228516 30.762032 36.112422 30.446409 37.241729 29.529297 37.751953 28.611881 38.262275 27.439868 37.960176 26.910156 37.076172 26.380749 36.192559 26.695865 35.063056 27.613281 34.552734 27.957198 34.3614 28.336684 34.283498 28.705078 34.308594z" fill="#dd4814"/></svg>
